packages/bezier-icons/icons/me.svg

<svg width="24" height="24" viewBox="0 0 24 24" fill="none" xmlns="http://www.w3.org/2000/svg">
<path fill-rule="evenodd" clip-rule="evenodd" d="M20.0002 8.50012C20.0002 8.77612 19.7762 9.00012 19.5002 9.00012H16.0002V11.0001H18.5002C18.7762 11.0001 19.0002 11.2241 19.0002 11.5001V12.5001C19.0002 12.7761 18.7762 13.0001 18.5002 13.0001H16.0002V15.0001H19.5002C19.7762 15.0001 20.0002 15.2241 20.0002 15.5001V16.5001C20.0002 16.7761 19.7762 17.0001 19.5002 17.0001H14.5002C14.2242 17.0001 14.0002 16.7761 14.0002 16.5001V13.0001V11.0001V9.00012V7.50012C14.0002 7.22412 14.2242 7.00012 14.5002 7.00012H19.5002C19.7762 7.00012 20.0002 7.22412 20.0002 7.50012V8.50012ZM13.0002 16.5001C13.0002 16.7761 12.7762 17.0001 12.5002 17.0001H11.5002C11.2242 17.0001 11.0002 16.7761 11.0002 16.5001V10.7981L8.93721 13.8551C8.73321 14.1581 8.28221 14.1461 8.09421 13.8321L6.00021 10.3351V16.5001C6.00021 16.7761 5.77621 17.0001 5.50021 17.0001H4.50021C4.22421 17.0001 4.00021 16.7761 4.00021 16.5001V7.50012C4.00021 7.22412 4.22421 7.00012 4.50021 7.00012L5.72221 7.00212C5.89521 7.00212 6.05521 7.09212 6.14621 7.23812L8.49821 11.0401L10.8542 7.23812C10.9442 7.09112 11.1052 7.00112 11.2782 7.00112L12.5002 7.00012C12.7762 7.00012 13.0002 7.22412 13.0002 7.50012V16.5001ZM20.0002 5.00012H4.00021C2.89621 5.00012 2.00021 5.89612 2.00021 7.00012V17.0001C2.00021 18.1041 2.89621 19.0001 4.00021 19.0001H20.0002C21.1042 19.0001 22.0002 18.1041 22.0002 17.0001V7.00012C22.0002 5.89612 21.1042 5.00012 20.0002 5.00012Z" fill="#313234"/>
</svg>

<svg xmlns="http://www.w3.org/2000/svg" width="24" height="24" fill="none" viewBox="0 0 24 24"><path fill="#313234" fill-rule="evenodd" d="M20 8.5a.5.5 0 0 1-.5.5H16v2h2.5a.5.5 0 0 1 .5.5v1a.5.5 0 0 1-.5.5H16v2h3.5a.5.5 0 0 1 .5.5v1a.5.5 0 0 1-.5.5h-5a.5.5 0 0 1-.5-.5v-9a.5.5 0 0 1 .5-.5h5a.5.5 0 0 1 .5.5zm-7 8a.5.5 0 0 1-.5.5h-1a.5.5 0 0 1-.5-.5v-5.702l-2.063 3.057a.5.5 0 0 1-.843-.023L6 10.335V16.5a.5.5 0 0 1-.5.5h-1a.5.5 0 0 1-.5-.5v-9a.5.5 0 0 1 .5-.5l1.222.002a.5.5 0 0 1 .424.236l2.352 3.802 2.356-3.802a.5.5 0 0 1 .424-.237H12.5a.5.5 0 0 1 .5.5zM20 5H4a2 2 0 0 0-2 2v10a2 2 0 0 0 2 2h16a2 2 0 0 0 2-2V7a2 2 0 0 0-2-2" clip-rule="evenodd"/></svg>
